name_svg/Libertas.svg

<?xml version="1.0" encoding="UTF-8"?>
<svg id="_레이어_2" data-name="레이어 2" xmlns="http://www.w3.org/2000/svg" viewBox="0 0 907.6 208.57">
  <g id="kerning">
    <g>
      <g>
        <path d="M252.58,200.87c-14,0-23.36-8.76-23.36-34.8v-99.36h0v-16.25l-46.89,34.68c-1.1.82-.16,2.52,1.13,2.04,3.65-1.39,8.11-4.24,12.81-6.78,6.81-3.67,15.07,1.33,15.07,9.06v78.36c0,21.13-7.28,33.05-18.72,33.05,0,0-4.74-.37-7.42,0-6.39.88-18.66,7.69-7.76,7.69h88.51v-7.69h-13.36Z"/>
        <path d="M207.54,24.3v17.13l20.92-15.34V0l-13.69,10.04c-4.54,3.33-7.22,8.62-7.22,14.26Z"/>
      </g>
      <path d="M373.08,100.02l-47.57,32.82V16.25h0V0l-46.89,34.68c-1.1.82-.16,2.52,1.13,2.04,3.65-1.39,8.11-4.24,12.81-6.78,6.81-3.67,15.07,1.33,15.07,9.06v128.82c0,21.13-7.28,33.05-18.72,33.05,0,0-.83-.16-3.5.21-6.39.88-17.57,7.49-6.67,7.49h75.35c22.18-9.25,36.9-17.95,36.9-47.56v-73.33l-17.89,12.34ZM373.08,167.56c0,26.84-19.78,33.31-19.78,33.31h-4.43c-14,0-23.36-8.76-23.36-34.8v-26.74l47.57-33.11v61.33Z"/>
      <path d="M581.62,100.02l-44.34,30.59v-42.93s-46.89,34.68-46.89,34.68c-1.1.82-.16,2.52,1.13,2.04,3.65-1.39,8.11-4.24,12.81-6.78,6.81-3.67,15.07,1.33,15.07,9.06l.02,41.15c0,21.13-2.56,31.67-17.4,33.05-6.43.6-18.66,7.69-7.76,7.69h69.6v-7.69h-3.2c-18.12,0-23.36-8.76-23.36-34.8h-.02v-28.99s44.34-30.86,44.34-30.86v37.73l17.89-12.34v-43.95l-17.89,12.34Z"/>
      <path d="M691.77,162.16v5.4c0,23.48-28.27,33.31-28.27,33.31h-.54c-10.77,0-19.75-13.17-19.75-22.52v-98.98l39.45-27.21v-6.07l-39.45,27.22V16.25h0V0l-46.89,34.68c-1.1.82-.16,2.52,1.13,2.04,3.65-1.39,8.11-4.24,12.81-6.78,6.81-3.67,15.07,1.33,15.07,9.06v46.64l-17.97,12.39v6.07l17.97-12.39v56.41h.01v30.43c0,16.22,9.19,30.02,24.46,30.02h16.65c22.18-9.25,43.23-22.03,43.23-47.56v-11.19l-17.89,12.34Z"/>
      <path d="M823,200.87c-18.12,0-23.36-8.76-23.36-34.8h-.02v-4.48c0-.2,0-.39,0-.59v-54.72c0-18.19-7.36-25.4-17.89-19.97l-47.57,32.82-18.09,12.24v32.24l18.09-12.48v-25.5l29.64-20.63c7.57-5.27,17.93-4.46,17.93,16.05v13.49s-65.66,45.29-65.66,45.29v10.64c0,9.99,12,18.09,23.91,18.09h22.73c7.21-3.01,13.62-5.96,19.01-9.59h0c0,1.89,4.72,9.59,14.37,9.59h30.09v-7.69h-3.2ZM761.95,200.87h-8.66c-10.56,0-19.13-8.56-19.13-19.13v-8.3l47.57-32.81v26.93c0,26.84-19.78,33.31-19.78,33.31Z"/>
      <path d="M907.6,118.03v-11.75c0-18.19-7.36-25.4-17.89-19.97l-47.57,32.82-18.09,12.24v25.83c0,15.85,17.79,25.19,30.83,16.19l34.82-24.02v18.2c0,26.84-19.78,33.31-19.78,33.31h-6.57c-9.99,0-18.21-7.5-19.39-17.17h-17.92c1.74,13.88,10.51,24.87,24.13,24.87h20.51c22.18-9.25,36.91-17.95,36.91-47.56v-30.06l-17.89,12.34-31.92,22.02c-6.62,4.57-15.65-.17-15.65-8.22v-31.45l29.64-20.63c7.57-5.27,17.93-4.46,17.93,16.05v9.32s17.89-12.35,17.89-12.35Z"/>
      <path d="M149.06,193.76c-8.07,7.61-18.71,7.12-29.81,7.12h-29.57c-14,0-25.36-10.61-25.36-34.8V49.5s0,0,0,.01V0L.42,43.77c-.94.64-.17,2.1.89,1.68,6.82-2.73,16.59-8.49,26.51-12.07,9.06-3.27,18.61,3.44,18.61,13.07,0,45.13,0,121.37,0,121.37,0,18.94-9.28,33.05-20.72,33.05,0,0-8.13-.37-10.81,0-6.39.88-18.66,7.69-7.76,7.69h157.74v-42.83h-.77c-2.13,8.44-10.09,23.34-15.05,28.02Z"/>
      <path d="M465.83,95.02l-47.57,32.82h0s-15.88,10.96-15.88,10.96v39.76c0,16.22,9.19,30.02,24.46,30.02h19.98c22.18-9.25,36.91-17.95,36.91-47.56v-11.19l-17.89,12.34v5.4c0,26.84-19.78,33.31-19.78,33.31h-6.04c-10.79,0-19.54-8.75-19.54-19.54h0s62.07-42.82,62.07-42.82l1.19-.82v-55.02l-17.89,12.34ZM420.47,132.8l45.36-31.57v42.73l-45.36,31.29v-42.45Z"/>
    </g>
  </g>
</svg>

<svg width="908" height="209" viewBox="0 0 908 209" fill="none" xmlns="http://www.w3.org/2000/svg">
<g clip-path="url(#clip0_1_62)">
<path d="M252.58 200.87C238.58 200.87 229.22 192.11 229.22 166.07V66.71V50.46L182.33 85.14C181.23 85.96 182.17 87.66 183.46 87.18C187.11 85.79 191.57 82.94 196.27 80.4C203.08 76.73 211.34 81.73 211.34 89.46V167.82C211.34 188.95 204.06 200.87 192.62 200.87C192.62 200.87 187.88 200.5 185.2 200.87C178.81 201.75 166.54 208.56 177.44 208.56H265.95V200.87H252.59H252.58Z" fill="white"/>
<path d="M207.54 24.3V41.43L228.46 26.09V0L214.77 10.04C210.23 13.37 207.55 18.66 207.55 24.3H207.54Z" fill="white"/>
<path d="M373.08 100.02L325.51 132.84V16.25V0L278.62 34.68C277.52 35.5 278.46 37.2 279.75 36.72C283.4 35.33 287.86 32.48 292.56 29.94C299.37 26.27 307.63 31.27 307.63 39V167.82C307.63 188.95 300.35 200.87 288.91 200.87C288.91 200.87 288.08 200.71 285.41 201.08C279.02 201.96 267.84 208.57 278.74 208.57H354.09C376.27 199.32 390.99 190.62 390.99 161.01V87.68L373.1 100.02H373.08ZM373.08 167.56C373.08 194.4 353.3 200.87 353.3 200.87H348.87C334.87 200.87 325.51 192.11 325.51 166.07V139.33L373.08 106.22V167.55V167.56Z" fill="white"/>
<path d="M581.62 100.02L537.28 130.61V87.68L490.39 122.36C489.29 123.18 490.23 124.88 491.52 124.4C495.17 123.01 499.63 120.16 504.33 117.62C511.14 113.95 519.4 118.95 519.4 126.68L519.42 167.83C519.42 188.96 516.86 199.5 502.02 200.88C495.59 201.48 483.36 208.57 494.26 208.57H563.86V200.88H560.66C542.54 200.88 537.3 192.12 537.3 166.08H537.28V137.09L581.62 106.23V143.96L599.51 131.62V87.67L581.62 100.01V100.02Z" fill="white"/>
<path d="M691.77 162.16V167.56C691.77 191.04 663.5 200.87 663.5 200.87H662.96C652.19 200.87 643.21 187.7 643.21 178.35V79.37L682.66 52.16V46.09L643.21 73.31V16.25V0L596.32 34.68C595.22 35.5 596.16 37.2 597.45 36.72C601.1 35.33 605.56 32.48 610.26 29.94C617.07 26.27 625.33 31.27 625.33 39V85.64L607.36 98.03V104.1L625.33 91.71V148.12H625.34V178.55C625.34 194.77 634.53 208.57 649.8 208.57H666.45C688.63 199.32 709.68 186.54 709.68 161.01V149.82L691.79 162.16H691.77Z" fill="white"/>
<path d="M823 200.87C804.88 200.87 799.64 192.11 799.64 166.07H799.62V161.59C799.62 161.39 799.62 161.2 799.62 161V106.28C799.62 88.09 792.26 80.88 781.73 86.31L734.16 119.13L716.07 131.37V163.61L734.16 151.13V125.63L763.8 105C771.37 99.73 781.73 100.54 781.73 121.05V134.54L716.07 179.83V190.47C716.07 200.46 728.07 208.56 739.98 208.56H762.71C769.92 205.55 776.33 202.6 781.72 198.97C781.72 200.86 786.44 208.56 796.09 208.56H826.18V200.87H822.98H823ZM761.95 200.87H753.29C742.73 200.87 734.16 192.31 734.16 181.74V173.44L781.73 140.63V167.56C781.73 194.4 761.95 200.87 761.95 200.87Z" fill="white"/>
<path d="M907.6 118.03V106.28C907.6 88.09 900.24 80.88 889.71 86.31L842.14 119.13L824.05 131.37V157.2C824.05 173.05 841.84 182.39 854.88 173.39L889.7 149.37V167.57C889.7 194.41 869.92 200.88 869.92 200.88H863.35C853.36 200.88 845.14 193.38 843.96 183.71H826.04C827.78 197.59 836.55 208.58 850.17 208.58H870.68C892.86 199.33 907.59 190.63 907.59 161.02V130.96L889.7 143.3L857.78 165.32C851.16 169.89 842.13 165.15 842.13 157.1V125.65L871.77 105.02C879.34 99.75 889.7 100.56 889.7 121.07V130.39L907.59 118.04L907.6 118.03Z" fill="white"/>
<path d="M149.06 193.76C140.99 201.37 130.35 200.88 119.25 200.88H89.68C75.68 200.88 64.32 190.27 64.32 166.08V49.5C64.32 49.5 64.32 49.5 64.32 49.51V0L0.420005 43.77C-0.519995 44.41 0.250005 45.87 1.31 45.45C8.13 42.72 17.9 36.96 27.82 33.38C36.88 30.11 46.43 36.82 46.43 46.45C46.43 91.58 46.43 167.82 46.43 167.82C46.43 186.76 37.15 200.87 25.71 200.87C25.71 200.87 17.58 200.5 14.9 200.87C8.51 201.75 -3.75999 208.56 7.14 208.56H164.88V165.73H164.11C161.98 174.17 154.02 189.07 149.06 193.75V193.76Z" fill="white"/>
<path d="M465.83 95.02L418.26 127.84L402.38 138.8V178.56C402.38 194.78 411.57 208.58 426.84 208.58H446.82C469 199.33 483.73 190.63 483.73 161.02V149.83L465.84 162.17V167.57C465.84 194.41 446.06 200.88 446.06 200.88H440.02C429.23 200.88 420.48 192.13 420.48 181.34L482.55 138.52L483.74 137.7V82.68L465.85 95.02H465.83ZM420.47 132.8L465.83 101.23V143.96L420.47 175.25V132.8Z" fill="white"/>
</g>
<defs>
<clipPath id="clip0_1_62">
<rect width="907.6" height="208.57" fill="white"/>
</clipPath>
</defs>
</svg>
